X: 41267
T: Tuesday Morning
R: jig
M: 6/8
K: Cmajor
A|GAG c2d|ede cde|fgf efe|ded dcA|
GAG c2d|ede cde|fgf efe|1 ded c2:|2 ded cef||
g2g agf|ged cde|fgf efe|ded def|
g2g agf|ged cde|fgf efe|ded cef|
g2g agf|ged cde|fgf efe|ded dcA|
GAG c2d|ede cde|fgf efe|ded c2|

